icons/outline/confetti.svg

<!--
tags: [party, celebrate, streamers, paper, parade, wedding, celebration]
version: "1.39"
unicode: "ee46"
-->
<svg
  xmlns="http://www.w3.org/2000/svg"
  width="24"
  height="24"
  viewBox="0 0 24 24"
  fill="none"
  stroke="currentColor"
  stroke-width="2"
  stroke-linecap="round"
  stroke-linejoin="round"
>
  <path d="M4 5h2m-1 -1v2m6.5 -2l-.5 2m7 -1h2m-1 -1v2m-4 3l-1 1m4 3l2 -.5m-2 6.5h2m-1 -1v2m-5 -3.482l-6.518 -6.518l-4.39 9.58a1 1 0 0 0 1.329 1.329l9.579 -4.39z" />
</svg>

<!--
tags: [party, celebrate, streamers, paper, parade, wedding, celebration]
version: "1.39"
unicode: "ee46"
-->
<svg
  xmlns="http://www.w3.org/2000/svg"
  width="24"
  height="24"
  viewBox="0 0 24 24"
  fill="none"
  stroke="currentColor"
  stroke-width="2"
  stroke-linecap="round"
  stroke-linejoin="round"
>
    <path d="M4 5h2M5 4v2M11.5 4l-.5 2M18 5h2M19 4v2M15 9l-1 1M18 13l2 -.5M18 19h2M19 18v2M14 16.518l-6.518 -6.518l-4.39 9.58a1 1 0 0 0 1.329 1.329l9.579 -4.39z" />
</svg>
